tunicode.svg

<svg xmlns="http://www.w3.org/2000/svg" fill="none" viewBox="0 0 512 485"><path stroke="#18AC0B" stroke-width="3" d="M255.735 27.166H510.5v455.76H255.735V27.166Z"/><path fill="#353240" d="M42.5 167v-59.5h175V167H165v264H95V167H42.5Z"/><path fill="#18AC0B" d="M414.59 375.06v-49h65.17v41.16c0 43.12-20.253 64.68-60.76 64.68h-61.74c-40.507 0-60.76-21.56-60.76-64.68V169.75c0-43.12 20.253-64.68 60.76-64.68H419c40.507 0 60.76 21.56 60.76 64.68v29.89h-65.17v-38.22c0-2.613-.98-4.9-2.94-6.86-1.633-1.96-3.757-2.94-6.37-2.94h-30.87c-2.613 0-4.9.98-6.86 2.94-1.633 1.96-2.45 4.247-2.45 6.86v213.64c0 2.613.817 4.9 2.45 6.86 1.96 1.96 4.247 2.94 6.86 2.94h30.87c2.613 0 4.737-.98 6.37-2.94 1.96-1.96 2.94-4.247 2.94-6.86ZM0 440.261h255.24v44.223H0z"/></svg>

<svg width="512" height="485" viewBox="0 0 512 485" fill="none" xmlns="http://www.w3.org/2000/svg">
<path d="M255.735 27.1665H510.5V482.926H255.735V27.1665Z" stroke="#18AC0B" stroke-width="3"/>
<path d="M42.5 167V107.5H217.5V167H165V431H95V167H42.5Z" fill="#353240"/>
<path d="M414.59 375.06V326.06H479.76V367.22C479.76 410.34 459.507 431.9 419 431.9H357.26C316.753 431.9 296.5 410.34 296.5 367.22V169.75C296.5 126.63 316.753 105.07 357.26 105.07H419C459.507 105.07 479.76 126.63 479.76 169.75V199.64H414.59V161.42C414.59 158.807 413.61 156.52 411.65 154.56C410.017 152.6 407.893 151.62 405.28 151.62H374.41C371.797 151.62 369.51 152.6 367.55 154.56C365.917 156.52 365.1 158.807 365.1 161.42V375.06C365.1 377.673 365.917 379.96 367.55 381.92C369.51 383.88 371.797 384.86 374.41 384.86H405.28C407.893 384.86 410.017 383.88 411.65 381.92C413.61 379.96 414.59 377.673 414.59 375.06Z" fill="#18AC0B"/>
<rect y="440.261" width="255.24" height="44.2226" fill="#18AC0B"/>
</svg>
